X:1
T:Sonata K. 431
T:Sonata K. 431
T:Domenico Scarlatti
T:Public Domain (PianoXML typeset)
C:Domenico Scarlatti
Z:Public Domain (PianoXML typeset)
%%score { 1 | ( 2 3 ) }
L:1/8
Q:1/4=140
M:3/4
K:G
V:1 treble nm="Piano" snm="Pno."
V:2 treble 
V:3 treble 
V:1
!mf!"^Allegro" (3!5!g!3!d!2!B (3GBg (3!1!cfa | (3!4!g!2!d!1!B (3!2!G!1!Bg (3!1!cfa | %2
 (3dd'b (3ec'a (3caf | (3!5!gdB (3!1!G!3!D!1!B, G,2 | (3!5!b!4!gd (3B!5!a!2!^c (3!1!dfa | %5
 (3!4!g!3!e^c (3!1!Gce (3!1!A!5!fd | (3Bge (3FAd (3Ee!4!^c | (3!5!d!3!AF x4 :: %8
!p! (3!5!dAF (3D!2!FA (3!1!G!2!B!4!d | (3!3!cAe"_cresc." (3cAe (3cAe | (3!2!cAa (3cAa (3cBg | %11
 !1!B2 PAG A2 |!f! (3!arpeggio![Adfa]fd (3Afa (3Bgb | (3c'af (3cac' (3bgd | %14
 (3!2!ec!5!a (3g!1!B!2!G (3!1!A!5!a!4!f | (3!5!gdB (3G!3!DB, G,2 :| %16
V:2
 !1!G4 !4!D2 | G4 !2!A2 | B2 !4!C2 !2!D2 | G,6 | G4 F2 | E4 F2 |[K:bass] !5!G,2 !1!A,2 A,,2 | %7
 x2 (3DA,F, x2 :: D2 =C2 [B,D]2 | [A,C]4 [G,C]2 | [F,CD]4 [G,D]2 | D,,6 | %12
 !arpeggio![D,,A,,D,]4 !arpeggio![B,,,G,,B,,]2 | !arpeggio![A,,,F,,A,,]4 !arpeggio![G,,,D,,G,,]2 | %14
 !arpeggio![C,,G,,C,]2 !arpeggio![D,,D,]2 !arpeggio![D,,A,,D,]2 | G,,,6 :| %16
V:3
 x6 | x6 | x6 | x6 | x6 | x6 |[K:bass] x6 | D,4 D,2 :: x6 | x6 | x6 | x6 | x6 | x6 | x6 | x6 :| %16

